Sources/FrostedUI/Resources/Icons.xcassets/converge12.imageset/converge-12.svg

<svg width="12" height="12" viewBox="0 0 12 12" fill="none" xmlns="http://www.w3.org/2000/svg" data-fui-icon="true">
  <path
    d="M2.34351 0.375488C3.3245 0.375488 4.15673 1.00364 4.4646 1.87939C5.26114 1.92556 5.97351 2.40282 6.31714 3.13037L7.31812 5.25049H9.17749L8.46558 4.52686C8.17521 4.23188 8.17883 3.75694 8.47339 3.46631C8.76849 3.17582 9.24333 3.1792 9.53394 3.47412L11.5027 5.47412C11.7899 5.76604 11.79 6.23499 11.5027 6.52686L9.53394 8.52686C9.24334 8.82137 8.76837 8.82492 8.47339 8.53467C8.17859 8.24419 8.17545 7.76925 8.46558 7.47412L9.17749 6.75049H7.31812L6.31714 8.87061C5.97342 9.59788 5.26096 10.0745 4.4646 10.1206C4.15673 10.9964 3.3245 11.6255 2.34351 11.6255C1.10114 11.6254 0.0937697 10.6178 0.0935059 9.37549C0.0935059 8.13293 1.10098 7.12562 2.34351 7.12549C3.31817 7.12549 4.14515 7.74588 4.45776 8.61279C4.67549 8.5742 4.86506 8.43416 4.96167 8.22998L6.0144 6.00049L4.96167 3.771C4.8651 3.5665 4.67574 3.42482 4.45776 3.38623C4.14539 4.25359 3.3185 4.87549 2.34351 4.87549C1.10114 4.87536 0.0937697 3.86782 0.0935059 2.62549C0.0935059 1.38293 1.10098 0.37562 2.34351 0.375488ZM2.34351 8.62549C1.9294 8.62562 1.59351 8.96136 1.59351 9.37549C1.59377 9.7894 1.92957 10.1254 2.34351 10.1255C2.75756 10.1255 3.09324 9.78948 3.09351 9.37549C3.09351 8.96128 2.75772 8.62549 2.34351 8.62549ZM2.34351 1.87549C1.9294 1.87562 1.59351 2.21136 1.59351 2.62549C1.59377 3.0394 1.92957 3.37536 2.34351 3.37549C2.75756 3.37549 3.09324 3.03948 3.09351 2.62549C3.09351 2.21127 2.75772 1.87549 2.34351 1.87549Z"
    fill="currentColor"
  />
</svg>

<svg xmlns="http://www.w3.org/2000/svg" width="12" height="12" fill="none" data-fui-icon="true" viewBox="0 0 12 12"><path fill="currentColor" d="M2.344.375c.98 0 1.813.629 2.12 1.504A2.19 2.19 0 0 1 6.318 3.13l1.001 2.12h1.86l-.712-.723a.75.75 0 0 1 1.068-1.053l1.969 2a.75.75 0 0 1 0 1.053l-1.97 2a.75.75 0 0 1-1.067-1.053l.711-.724H7.318l-1 2.12a2.19 2.19 0 0 1-1.853 1.25 2.25 2.25 0 1 1-.007-1.507.69.69 0 0 0 .504-.383L6.014 6 4.962 3.771a.69.69 0 0 0-.504-.385 2.248 2.248 0 0 1-4.364-.76 2.25 2.25 0 0 1 2.25-2.25m0 8.25a.75.75 0 1 0 0 1.5.75.75 0 0 0 0-1.5m0-6.75a.75.75 0 1 0 0 1.5.75.75 0 0 0 0-1.5"/></svg>
